meters/img/phone.svg

<svg width="24" height="24" viewBox="0 0 24 24" fill="none" xmlns="http://www.w3.org/2000/svg">
<path d="M13.5253 4.30599C13.5508 4.21081 13.5947 4.12158 13.6547 4.04339C13.7147 3.9652 13.7894 3.8996 13.8748 3.85032C13.9601 3.80104 14.0543 3.76906 14.152 3.7562C14.2496 3.74334 14.3489 3.74985 14.4441 3.77537C15.8344 4.13813 17.103 4.86497 18.119 5.88103C19.1351 6.89708 19.8619 8.16562 20.2247 9.55599C20.2502 9.65116 20.2567 9.75042 20.2439 9.84811C20.231 9.94579 20.199 10.04 20.1497 10.1253C20.1005 10.2106 20.0349 10.2854 19.9567 10.3454C19.8785 10.4053 19.7893 10.4493 19.6941 10.4747C19.6307 10.4914 19.5655 10.4999 19.5 10.5001C19.3347 10.5001 19.1741 10.4455 19.043 10.3448C18.912 10.244 18.8179 10.1029 18.7753 9.94318C18.4795 8.80817 17.8863 7.77259 17.0569 6.9432C16.2275 6.11381 15.1919 5.52061 14.0569 5.22474C13.9616 5.19938 13.8723 5.15549 13.794 5.09558C13.7157 5.03566 13.65 4.9609 13.6006 4.87557C13.5513 4.79024 13.5192 4.69601 13.5063 4.59828C13.4933 4.50054 13.4998 4.40122 13.5253 4.30599ZM13.3069 8.22474C14.5997 8.56974 15.4303 9.40037 15.7753 10.6932C15.8179 10.8529 15.912 10.994 16.043 11.0948C16.1741 11.1955 16.3347 11.25 16.5 11.2501C16.5655 11.2499 16.6307 11.2414 16.6941 11.2247C16.7893 11.1993 16.8785 11.1553 16.9567 11.0954C17.0349 11.0354 17.1005 10.9606 17.1497 10.8753C17.199 10.79 17.231 10.6958 17.2439 10.5981C17.2567 10.5004 17.2502 10.4012 17.2247 10.306C16.7447 8.50974 15.4903 7.25537 13.6941 6.77537C13.5019 6.72402 13.2971 6.75113 13.1249 6.85073C12.9527 6.95033 12.8271 7.11426 12.7758 7.30646C12.7244 7.49866 12.7516 7.70338 12.8512 7.87559C12.9508 8.04781 13.1147 8.1734 13.3069 8.22474ZM20.9888 17.1638C20.8216 18.4341 20.1977 19.6002 19.2337 20.4442C18.2696 21.2882 17.0313 21.7523 15.75 21.7501C8.30626 21.7501 2.25001 15.6938 2.25001 8.25005C2.24771 6.96876 2.7119 5.73045 3.55588 4.76639C4.39986 3.80234 5.56592 3.17847 6.83626 3.0113C7.1575 2.97208 7.4828 3.0378 7.76362 3.19865C8.04444 3.35951 8.2657 3.60687 8.39438 3.9038L10.3744 8.32412V8.33537C10.4729 8.56267 10.5136 8.81083 10.4928 9.05769C10.472 9.30455 10.3904 9.54242 10.2553 9.75005C10.2384 9.77537 10.2206 9.7988 10.2019 9.82224L8.25001 12.136C8.9522 13.5629 10.4447 15.0422 11.8903 15.7463L14.1722 13.8047C14.1946 13.7859 14.2181 13.7684 14.2425 13.7522C14.45 13.6139 14.6887 13.5294 14.937 13.5065C15.1853 13.4836 15.4354 13.5229 15.6647 13.621L15.6769 13.6266L20.0934 15.6057C20.3909 15.7339 20.6389 15.955 20.8003 16.2358C20.9616 16.5167 21.0278 16.8422 20.9888 17.1638ZM19.5 16.9763H19.4897L15.0834 15.0029L12.8006 16.9444C12.7785 16.9633 12.7554 16.9808 12.7313 16.9969C12.5154 17.1409 12.2659 17.2265 12.0071 17.2452C11.7483 17.2639 11.489 17.2152 11.2547 17.1038C9.49876 16.2554 7.74845 14.5182 6.89907 12.781C6.7866 12.5484 6.73613 12.2906 6.75255 12.0327C6.76898 11.7749 6.85174 11.5256 6.99282 11.3091C7.00868 11.2837 7.02655 11.2595 7.04626 11.2369L9.00001 8.92037L7.03126 4.51412C7.03088 4.51038 7.03088 4.50661 7.03126 4.50287C6.12212 4.62146 5.28739 5.0674 4.68339 5.75716C4.0794 6.44693 3.74755 7.33322 3.75001 8.25005C3.75348 11.4316 5.01888 14.4818 7.26856 16.7315C9.51825 18.9812 12.5685 20.2466 15.75 20.2501C16.6663 20.2532 17.5523 19.9225 18.2425 19.3198C18.9327 18.7171 19.3797 17.8837 19.5 16.9754V16.9763Z" fill="#F1F2F1"/>
</svg>

<svg width="24" height="24" fill="none" xmlns="http://www.w3.org/2000/svg"><path d="M13.525 4.306a.75.75 0 0 1 .92-.53 8.083 8.083 0 0 1 5.78 5.78.751.751 0 0 1-1.182.789.75.75 0 0 1-.268-.402 6.595 6.595 0 0 0-4.718-4.718.75.75 0 0 1-.532-.919Zm-.218 3.919c1.293.345 2.123 1.175 2.468 2.468a.75.75 0 1 0 1.45-.387c-.48-1.796-1.735-3.05-3.53-3.53a.75.75 0 0 0-.388 1.449Zm7.682 8.939a5.275 5.275 0 0 1-5.239 4.586c-7.444 0-13.5-6.056-13.5-13.5a5.274 5.274 0 0 1 4.586-5.239 1.5 1.5 0 0 1 1.558.893l1.98 4.42v.011a1.5 1.5 0 0 1-.119 1.415 1.048 1.048 0 0 1-.053.072L8.25 12.136c.702 1.427 2.195 2.906 3.64 3.61l2.282-1.941a1.5 1.5 0 0 1 1.492-.184l.013.006 4.416 1.979a1.5 1.5 0 0 1 .896 1.558Zm-1.489-.188h-.01l-4.407-1.973-2.282 1.941a.733.733 0 0 1-.07.053 1.5 1.5 0 0 1-1.476.107c-1.756-.849-3.507-2.586-4.356-4.323a1.5 1.5 0 0 1 .094-1.472.566.566 0 0 1 .053-.072L9 8.92 7.031 4.514v-.011A3.769 3.769 0 0 0 3.75 8.25a12.013 12.013 0 0 0 12 12 3.77 3.77 0 0 0 3.75-3.275v.001Z" fill="#F1F2F1"/></svg>
